X:1
T:Hanwell, 87.87.47
T:Lowell Mason, Carmina Sacra, 1844
T:Hanwell, 87.87.47
T:Public Domain
C:Lowell Mason, Carmina Sacra, 1844
Z:Public Domain
%%score ( 1 2 ) ( 3 4 )
L:1/8
M:3/4
K:D
V:1 treble 
V:2 treble 
V:3 bass 
V:4 bass 
V:1
 [DF][DF] | [DF]3 D [DG][GB] | [FA]2 [FA]2 [Fd][Fd] | [Fd]3 [FA] [Ge][Gc] | [Fd]4 :| [Fd]6 | %6
 [GB]4 [GB]2 | [GB]2 [GB]4 | A2 d2 [Gc]2 | [Ad]2 F2 [DA]2 | [EG]2 [DF]2 [CE]2 | D4 |] %12
V:2
 x2 | x3 D x2 | x6 | x6 | x4 :| x6 | x6 | x6 | F4 x2 | x2 F2 x2 | x6 | D4 |] %12
V:3
 [D,A,][D,A,] | [D,A,]3 [D,A,] [B,,B,][G,,D] | [D,D]2 [D,D]2 [D,A,][F,A,] | %3
 A,3 [A,D] [A,,C][A,,E] | [D,D]4 :| [D,D]6 | [G,D]4 [G,D]2 | [G,D]2 [G,D]4 | D2 A,2 [E,A,]2 | %9
 F,2 D,2 [F,A,]2 | [G,B,]2 A,2 [A,,G,]2 | [D,F,]4 |] %12
V:4
 x2 | x6 | x6 | A,3 x3 | x4 :| x6 | x6 | x6 | D,4 x2 | A,4 x2 | x2 A,2 x2 | x4 |] %12

